icons/linear-new-office-identification-card-2.svg

<svg xmlns="http://www.w3.org/2000/svg" width="32px" height="32px" viewBox="0 0 32 32" version="1.1">
    <title>linear-new-office-identification-card-2</title>
    <g id="linear-new-office-identification-card-2" stroke-width="1" fill-rule="evenodd">
        <path d="M29,5 C29.5522847,5 30,5.44771525 30,6 L30,26 C30,26.5522847 29.5522847,27 29,27 L3,27 C2.44771525,27 2,26.5522847 2,26 L2,6 C2,5.44771525 2.44771525,5 3,5 L29,5 Z M28,7 L4,7 L4,25 L28,25 L28,7 Z M14,11 C14.5522847,11 15,11.4477153 15,12 L15,20 C15,20.5522847 14.5522847,21 14,21 L8,21 C7.44771525,21 7,20.5522847 7,20 L7,12 C7,11.4477153 7.44771525,11 8,11 L14,11 Z M24,18 C24.5522847,18 25,18.4477153 25,19 C25,19.5522847 24.5522847,20 24,20 L19,20 C18.4477153,20 18,19.5522847 18,19 C18,18.4477153 18.4477153,18 19,18 L24,18 Z M13,13 L9,13 L9,19 L13,19 L13,13 Z M24,12 C24.5522847,12 25,12.4477153 25,13 C25,13.5522847 24.5522847,14 24,14 L19,14 C18.4477153,14 18,13.5522847 18,13 C18,12.4477153 18.4477153,12 19,12 L24,12 Z" id="&#24418;&#29366;" fill-rule="nonzero" />
    </g>
</svg>

<svg xmlns="http://www.w3.org/2000/svg" viewBox="0 0 32 32"><path fill="currentColor" d="M29 5a1 1 0 0 1 1 1v20a1 1 0 0 1-1 1H3a1 1 0 0 1-1-1V6a1 1 0 0 1 1-1zm-1 2H4v18h24zm-14 4a1 1 0 0 1 1 1v8a1 1 0 0 1-1 1H8a1 1 0 0 1-1-1v-8a1 1 0 0 1 1-1zm10 7a1 1 0 0 1 0 2h-5a1 1 0 0 1 0-2zm-11-5H9v6h4zm11-1a1 1 0 0 1 0 2h-5a1 1 0 0 1 0-2z"/></svg>
